static/img/pages/index/integrations/python.svg

<svg width="90" height="89" viewBox="0 0 90 89" fill="none" xmlns="http://www.w3.org/2000/svg">
<path d="M44.6756 0C21.828 1.62045e-06 23.2547 9.84929 23.2547 9.84929L23.2802 20.0531H45.0831V23.1167H14.6202C14.6202 23.1167 0 21.4685 0 44.3851C-1.63012e-06 67.3017 12.7608 66.489 12.7608 66.489H20.3765V55.8549C20.3765 55.8549 19.966 43.1698 32.9336 43.1698C45.9011 43.1698 54.5582 43.1698 54.5582 43.1698C54.5582 43.1698 66.7077 43.365 66.7077 31.4975C66.7077 19.63 66.7077 11.8749 66.7077 11.8749C66.7077 11.8749 68.5523 0 44.6756 0ZM32.6534 6.86159C34.8226 6.86159 36.5759 8.60444 36.5759 10.7608C36.5759 12.9171 34.8226 14.66 32.6534 14.66C30.4842 14.66 28.7309 12.9171 28.7309 10.7608C28.7309 8.60444 30.4842 6.86159 32.6534 6.86159Z" fill="white"/>
<path d="M45.3244 88.9999C68.172 88.9999 66.7453 79.1506 66.7453 79.1506L66.7198 68.9469H44.9169V65.8832H75.3798C75.3798 65.8832 90 67.5314 90 44.6148C90 21.6982 77.2392 22.5109 77.2392 22.5109H69.6234V33.1451C69.6234 33.1451 70.034 45.8302 57.0664 45.8302C44.0989 45.8302 35.4418 45.8302 35.4418 45.8302C35.4418 45.8302 23.2923 45.6349 23.2923 57.5025C23.2923 69.37 23.2923 77.1251 23.2923 77.1251C23.2923 77.1251 21.4477 88.9999 45.3244 88.9999ZM57.3466 82.1384C55.1774 82.1384 53.4241 80.3955 53.4241 78.2391C53.4241 76.0828 55.1774 74.3399 57.3466 74.3399C59.5158 74.3399 61.2691 76.0828 61.2691 78.2391C61.2691 80.3955 59.5158 82.1384 57.3466 82.1384Z" fill="white"/>
</svg>

<svg width="90" height="89" fill="none" xmlns="http://www.w3.org/2000/svg"><path d="M44.676 0C21.828 0 23.255 9.85 23.255 9.85l.025 10.203h21.803v3.064H14.62S0 21.468 0 44.385 12.76 66.49 12.76 66.49h7.617V55.855S19.965 43.17 32.934 43.17h21.624s12.15.195 12.15-11.673V11.875S68.552 0 44.676 0zM32.653 6.862c2.17 0 3.923 1.742 3.923 3.899 0 2.156-1.753 3.899-3.923 3.899-2.169 0-3.922-1.743-3.922-3.9 0-2.156 1.753-3.898 3.922-3.898z" fill="#fff"/><path d="M45.324 89c22.848 0 21.421-9.85 21.421-9.85l-.025-10.203H44.917v-3.064H75.38S90 67.531 90 44.615C90 21.698 77.24 22.51 77.24 22.51h-7.617v10.634s.411 12.685-12.557 12.685H35.442s-12.15-.195-12.15 11.672v19.623S21.448 89 45.324 89zm12.023-6.862c-2.17 0-3.923-1.743-3.923-3.899 0-2.156 1.753-3.9 3.923-3.9 2.169 0 3.922 1.744 3.922 3.9 0 2.156-1.753 3.9-3.922 3.9z" fill="#fff"/></svg>
